picto/sectors-j-fr-large-framed.svg

<svg class="color-immutable" width="30" height="30" viewBox="0 0 30 30" fill="none" xmlns="http://www.w3.org/2000/svg"><path d="M30 0H0V30H30V0Z" fill="#2D327D"/><path d="M25.5 3C26.325 3 27 3.675 27 4.5V25.5C27 26.325 26.325 27 25.5 27H4.5C3.675 27 3 26.325 3 25.5V4.5C3 3.675 3.675 3 4.5 3H25.5ZM25.5 2.625H4.5C3.46613 2.625 2.625 3.46613 2.625 4.5V25.5C2.625 26.5339 3.46613 27.375 4.5 27.375H25.5C26.5339 27.375 27.375 26.5339 27.375 25.5V4.5C27.375 3.46613 26.5339 2.625 25.5 2.625Z" fill="white"/><path d="M18.9429 10.5098V19.5907C18.9429 20.3783 18.8829 21.0089 18.763 21.4826C18.643 21.9563 18.4321 22.3901 18.1308 22.7838C17.3494 23.8113 16.1435 24.325 14.5132 24.325C12.5937 24.325 11.2741 23.679 10.5542 22.387C10.1851 21.7103 10.0005 20.7536 10.0005 19.5169C10.0005 19.3939 10.0036 19.2062 10.0097 18.9539H12.7414C12.7414 19.1078 12.7414 19.237 12.7414 19.3415C12.7414 20.246 12.8152 20.852 12.9628 21.1595C13.2088 21.6764 13.6949 21.9347 14.4209 21.9347C15.0115 21.9347 15.4222 21.7686 15.6529 21.4364C15.8836 21.1041 15.999 20.5227 15.999 19.6922V10.5098H18.9429Z" fill="white"/><path d="M7.812 6.666H7.34445C7.33522 6.55628 7.29442 6.47243 7.2222 6.41453C7.14997 6.35663 7.04865 6.3276 6.91845 6.3276C6.80257 6.3276 6.71257 6.3504 6.64852 6.39608C6.58447 6.44175 6.55237 6.5055 6.55237 6.58755C6.55237 6.66135 6.58312 6.71468 6.64462 6.74753C6.7041 6.78038 6.85485 6.8265 7.0968 6.88598C7.3521 6.94958 7.52902 7.01363 7.62742 7.0782C7.80892 7.19715 7.89967 7.36275 7.89967 7.575C7.89967 7.8078 7.8084 7.99133 7.62592 8.12565C7.46497 8.24355 7.24702 8.3025 6.97222 8.3025C6.66667 8.3025 6.4293 8.23275 6.2601 8.09333C6.0909 7.9539 6.00322 7.75545 5.99707 7.49805H6.48615C6.49335 7.62315 6.5256 7.71593 6.58305 7.77645C6.67327 7.87283 6.80917 7.92105 6.99067 7.92105C7.11375 7.92105 7.2111 7.89698 7.28287 7.84875C7.36387 7.7934 7.40437 7.71803 7.40437 7.62263C7.40437 7.52723 7.34745 7.45755 7.23367 7.41345C7.17112 7.38885 7.02345 7.34423 6.79072 7.27965C6.64515 7.23968 6.5313 7.20173 6.44925 7.1658C6.3672 7.12988 6.30157 7.0899 6.25237 7.0458C6.13755 6.94328 6.0801 6.80175 6.0801 6.6213C6.0801 6.40493 6.1698 6.2337 6.34927 6.10755C6.50205 5.99985 6.7005 5.94608 6.94455 5.94608C7.15882 5.94608 7.3383 5.9886 7.4829 6.07373C7.69102 6.19583 7.80075 6.39323 7.812 6.666Z" fill="white"/><path d="M9.69612 7.72575C9.67257 7.8201 9.62997 7.90875 9.56847 7.99185C9.4208 8.19383 9.20855 8.29485 8.93172 8.29485C8.68152 8.29485 8.48105 8.21588 8.3303 8.058C8.2565 7.98113 8.2001 7.88828 8.1611 7.7796C8.11902 7.66373 8.09802 7.54275 8.09802 7.4166C8.09802 7.17255 8.1683 6.9675 8.30877 6.80138C8.46567 6.61575 8.6687 6.52298 8.91785 6.52298C9.11885 6.52298 9.29007 6.585 9.4316 6.70905C9.53315 6.79823 9.60695 6.90825 9.65307 7.03898C9.6992 7.1697 9.7223 7.33403 9.7223 7.53196H8.55185C8.55597 7.614 8.5688 7.68218 8.59032 7.73655C8.65085 7.88318 8.76567 7.95653 8.93487 7.95653C9.0179 7.95653 9.08562 7.9383 9.1379 7.90193C9.19017 7.86555 9.23322 7.80683 9.26712 7.72583H9.69612V7.72575ZM9.26705 7.23203C9.25887 7.15103 9.24042 7.08383 9.2117 7.0305C9.18297 6.97823 9.14225 6.93668 9.08945 6.90593C9.03665 6.87518 8.97897 6.8598 8.91642 6.8598C8.81697 6.8598 8.73492 6.8931 8.67035 6.95978C8.60577 7.02645 8.5673 7.1172 8.555 7.23203H9.26705Z" fill="white"/><path d="M11.5465 7.60418C11.525 7.77135 11.4691 7.91078 11.3789 8.02253C11.2333 8.20403 11.0277 8.29478 10.7621 8.29478C10.4893 8.29478 10.2771 8.20148 10.1253 8.01488C9.99716 7.85595 9.93311 7.6596 9.93311 7.42583C9.93311 7.1367 10.0188 6.90855 10.19 6.74138C10.3397 6.5958 10.533 6.52298 10.7698 6.52298C10.9882 6.52298 11.1656 6.5796 11.302 6.69293C11.4384 6.80625 11.5163 6.96135 11.5358 7.15823H11.0974C11.081 7.06905 11.0446 6.99983 10.9882 6.95056C10.9318 6.90128 10.8606 6.87675 10.7744 6.87675C10.6503 6.87675 10.5542 6.92363 10.486 7.01745C10.4178 7.11128 10.3837 7.24275 10.3837 7.41195C10.3837 7.56165 10.4109 7.68218 10.4652 7.77338C10.5319 7.88513 10.6319 7.941 10.7652 7.941C10.962 7.941 11.0774 7.82873 11.1112 7.60418H11.5465Z" fill="white"/><path d="M12.7078 6.56602V6.88132H12.374V7.6704C12.374 7.76475 12.3827 7.82475 12.4002 7.85032C12.4259 7.88722 12.4832 7.90567 12.5725 7.90567C12.6074 7.90567 12.6524 7.90312 12.7079 7.89795V8.2548C12.6074 8.26605 12.5151 8.27175 12.431 8.27175C12.3039 8.27175 12.207 8.25742 12.1403 8.2287C12.0368 8.18257 11.9722 8.0985 11.9465 7.97647C11.9353 7.9242 11.9296 7.81597 11.9296 7.65195V6.88132H11.6573V6.56602H11.9296V6.17227H12.3741V6.56602H12.7078Z" fill="white"/><path d="M14.4397 7.72575C14.4161 7.8201 14.3735 7.90875 14.312 7.99185C14.1643 8.19383 13.9521 8.29485 13.6753 8.29485C13.4251 8.29485 13.2246 8.21588 13.0738 8.058C13 7.98113 12.9436 7.88828 12.9046 7.7796C12.8626 7.66373 12.8416 7.54275 12.8416 7.4166C12.8416 7.17255 12.9118 6.9675 13.0523 6.80138C13.2092 6.61575 13.4122 6.52298 13.6614 6.52298C13.8624 6.52298 14.0336 6.585 14.1751 6.70905C14.2767 6.79823 14.3505 6.90825 14.3966 7.03898C14.4427 7.1697 14.4658 7.33403 14.4658 7.53196H13.2954C13.2995 7.614 13.3123 7.68218 13.3339 7.73655C13.3944 7.88318 13.5092 7.95653 13.6784 7.95653C13.7614 7.95653 13.8292 7.9383 13.8814 7.90193C13.9337 7.86555 13.9768 7.80683 14.0107 7.72583H14.4397V7.72575ZM14.0105 7.23203C14.0023 7.15103 13.9839 7.08383 13.9552 7.0305C13.9264 6.97823 13.8857 6.93668 13.8329 6.90593C13.7801 6.87518 13.7224 6.8598 13.6599 6.8598C13.5604 6.8598 13.4784 6.8931 13.4138 6.95978C13.3492 7.02645 13.3108 7.1172 13.2985 7.23203H14.0105Z" fill="white"/><path d="M16.2577 6.56911V8.24873H15.8332V8.00416C15.705 8.19796 15.5256 8.29486 15.2949 8.29486C15.0939 8.29486 14.9421 8.22766 14.8395 8.09333C14.8005 8.04106 14.7726 7.97948 14.7557 7.90876C14.7387 7.83803 14.7303 7.74571 14.7303 7.63193V6.56911H15.1764V7.49348C15.1764 7.58986 15.1792 7.65803 15.1848 7.69808C15.1905 7.73813 15.202 7.77188 15.2195 7.79963C15.2667 7.87448 15.3471 7.91191 15.461 7.91191C15.6015 7.91191 15.7035 7.84988 15.7671 7.72583C15.7978 7.66531 15.8132 7.55611 15.8132 7.39823V6.56911H16.2577Z" fill="white"/><path d="M17.6466 6.54143V6.97366C17.5749 6.96031 17.517 6.95363 17.4729 6.95363C17.3067 6.95363 17.1847 7.02338 17.1068 7.16281C17.0627 7.24073 17.0406 7.37093 17.0406 7.55348V8.24873H16.5946V6.56911H17.0191V6.87518C17.1401 6.64756 17.316 6.53371 17.5467 6.53371C17.5754 6.53371 17.6087 6.53626 17.6466 6.54143Z" fill="white"/></svg>

<svg class="color-immutable" width="30" height="30" viewBox="0 0 30 30" fill="none" xmlns="http://www.w3.org/2000/svg"><g clip-path="url(#a)"><path d="M30 0H0v30h30V0Z" fill="#2D327D"/><path d="M25.5 3c.825 0 1.5.675 1.5 1.5v21c0 .825-.675 1.5-1.5 1.5h-21c-.825 0-1.5-.675-1.5-1.5v-21C3 3.675 3.675 3 4.5 3h21Zm0-.375h-21A1.877 1.877 0 0 0 2.625 4.5v21c0 1.034.841 1.875 1.875 1.875h21a1.877 1.877 0 0 0 1.875-1.875v-21A1.877 1.877 0 0 0 25.5 2.625Z" fill="#fff"/><path d="M18.943 10.51v9.08c0 .788-.06 1.419-.18 1.893a3.56 3.56 0 0 1-.632 1.3c-.782 1.028-1.988 1.542-3.618 1.542-1.92 0-3.239-.646-3.959-1.938-.369-.677-.553-1.633-.553-2.87 0-.123.003-.31.009-.563h2.731v.387c0 .905.074 1.511.222 1.819.246.516.732.775 1.458.775.59 0 1.001-.166 1.232-.499.23-.332.346-.913.346-1.744V10.51h2.944ZM7.812 6.666h-.468a.343.343 0 0 0-.122-.251.474.474 0 0 0-.304-.087.46.46 0 0 0-.27.068.222.222 0 0 0-.096.192c0 .073.031.127.093.16.06.032.21.079.452.138.255.064.432.128.53.192a.563.563 0 0 1 .273.497.647.647 0 0 1-.274.55c-.161.119-.379.178-.654.178-.305 0-.543-.07-.712-.21-.17-.14-.257-.338-.263-.595h.49c.006.125.039.218.096.278.09.097.226.145.408.145.123 0 .22-.024.292-.072a.26.26 0 0 0 .121-.226c0-.096-.057-.165-.17-.21a6.006 6.006 0 0 0-.443-.133 2.616 2.616 0 0 1-.342-.114.736.736 0 0 1-.197-.12.54.54 0 0 1-.172-.425c0-.216.09-.387.27-.513.152-.108.35-.162.595-.162.214 0 .393.043.538.128.208.122.318.32.329.592ZM9.696 7.726a.75.75 0 0 1-.128.266c-.147.202-.36.303-.636.303-.25 0-.451-.08-.602-.237a.773.773 0 0 1-.169-.278 1.055 1.055 0 0 1-.063-.363c0-.244.07-.45.21-.616a.76.76 0 0 1 .61-.278c.2 0 .372.062.514.186.101.09.175.2.221.33.046.13.07.295.07.493H8.551a.65.65 0 0 0 .038.205c.06.146.176.22.345.22.083 0 .15-.019.203-.055a.39.39 0 0 0 .13-.176h.428Zm-.429-.494a.539.539 0 0 0-.055-.202.338.338 0 0 0-.295-.17c-.1 0-.182.033-.247.1a.446.446 0 0 0-.115.272h.712ZM11.546 7.604a.817.817 0 0 1-.167.419c-.146.181-.351.272-.617.272-.273 0-.485-.094-.637-.28a.908.908 0 0 1-.192-.59c0-.288.086-.516.257-.684a.797.797 0 0 1 .58-.218c.218 0 .396.057.532.17a.663.663 0 0 1 .234.465h-.439a.35.35 0 0 0-.109-.207.313.313 0 0 0-.214-.074.336.336 0 0 0-.288.14c-.068.094-.102.226-.102.395 0 .15.027.27.081.361a.327.327 0 0 0 .3.168c.197 0 .312-.112.346-.337h.435ZM12.708 6.566v.315h-.334v.79c0 .094.009.154.026.18.026.036.083.055.172.055.035 0 .08-.003.136-.008v.357c-.1.011-.193.017-.277.017a.764.764 0 0 1-.29-.043.332.332 0 0 1-.194-.253 1.939 1.939 0 0 1-.017-.324v-.77h-.273v-.316h.273v-.394h.444v.394h.334ZM14.44 7.726a.751.751 0 0 1-.128.266c-.148.202-.36.303-.637.303-.25 0-.45-.08-.601-.237a.773.773 0 0 1-.17-.278 1.057 1.057 0 0 1-.062-.363c0-.244.07-.45.21-.616a.76.76 0 0 1 .61-.278c.2 0 .372.062.513.186.102.09.175.2.222.33.046.13.069.295.069.493h-1.17c.004.082.016.15.038.205.06.146.175.22.344.22.083 0 .151-.019.203-.055a.39.39 0 0 0 .13-.176h.429Zm-.43-.494a.54.54 0 0 0-.055-.202.338.338 0 0 0-.295-.17c-.1 0-.182.033-.246.1a.446.446 0 0 0-.115.272h.712ZM16.258 6.57v1.679h-.425v-.245a.61.61 0 0 1-.538.29c-.201 0-.353-.066-.456-.2a.498.498 0 0 1-.083-.185 1.223 1.223 0 0 1-.026-.277V6.569h.446v.924c0 .097.003.165.009.205.005.04.017.074.034.102.048.074.128.112.242.112a.32.32 0 0 0 .306-.186c.03-.06.046-.17.046-.328V6.57h.445ZM17.647 6.541v.433a.995.995 0 0 0-.174-.02.39.39 0 0 0-.366.209c-.044.078-.066.208-.066.39v.696h-.446v-1.68h.424v.306c.121-.227.297-.341.528-.341a.75.75 0 0 1 .1.007Z" fill="#fff"/></g><defs><clipPath id="a"><path fill="#fff" d="M0 0h30v30H0z"/></clipPath></defs></svg>
